core/img/actions/projects.svg

<svg width="16" height="16" version="1.1" viewBox="0 0 4.2333 4.2333" xmlns="http://www.w3.org/2000/svg"><g transform="translate(0 -292.77)"><g transform="translate(0 -.52917)"><path transform="matrix(.26458 0 0 .26458 0 293.3)" d="m5.1602 1.9746v2.205h-4.5937v7.6836h2.8047v2.3262h10.291v-4.5371h1.7891v-7.6777h-10.291zm0.75195 0.74609h8.7871v6.1855h-1.0371v-2.3945h-2.8047v-2.332h-4.9453v-1.459zm-4.5938 2.2109h8.793v1.5801h-6.7402v4.6054h-2.0527v-6.1855zm2.8066 2.3262h8.793v6.1855h-8.793v-6.1855z" color-rendering="auto" dominant-baseline="auto" image-rendering="auto" shape-rendering="auto" stroke="#000" stroke-linecap="round" stroke-width=".4" style="font-feature-settings:normal;font-variant-alternates:normal;font-variant-caps:normal;font-variant-ligatures:normal;font-variant-numeric:normal;font-variant-position:normal;isolation:auto;mix-blend-mode:normal;paint-order:markers fill stroke;shape-padding:0;text-decoration-color:#000000;text-decoration-line:none;text-decoration-style:solid;text-indent:0;text-orientation:mixed;text-transform:none;white-space:normal" solid-fill="#000000"/></g></g></svg>

<svg xmlns="http://www.w3.org/2000/svg" width="16" height="16" viewBox="0 0 4.233 4.233"><path stroke="#000" stroke-linecap="round" stroke-width=".4" d="M5.16 1.975V4.18H.566v7.683h2.805v2.326h10.291V9.652h1.79V1.975H5.16zm.752.746H14.7v6.185h-1.037V6.512h-2.805V4.18H5.912V2.72zM1.318 4.93h8.793v1.58h-6.74v4.606H1.318V4.932zm2.807 2.327h8.793v6.185H4.125V7.258z" style="font-feature-settings:normal;font-variant-alternates:normal;font-variant-caps:normal;font-variant-ligatures:normal;font-variant-numeric:normal;font-variant-position:normal;isolation:auto;mix-blend-mode:normal;paint-order:markers fill stroke;shape-padding:0;text-decoration-color:#000;text-decoration-line:none;text-decoration-style:solid;text-indent:0;text-orientation:mixed;text-transform:none;white-space:normal" transform="scale(.26458)"/></svg>
